fruit-cherries.svg

<svg fill="currentColor" viewBox="0 0 24 24"><path d="M16 13h-.5c-.7-1.3-1.2-3-1.7-4.7l.9.9c2.7 2.1 5.1 1.7 5.1 1.7s.7-3.8-2-5.8c-2.3-1.8-4.4-1.8-5-1.7-.1-.6-.1-1.1-.2-1.5l-1.4.1c0 3.2-2.7 9.1-3.6 11-2 .2-3.6 1.9-3.6 4 0 2.2 1.8 4 4 4 1.1 0 2-.4 2.7-1.1-.4-.9-.7-1.9-.7-2.9s.3-2 .7-2.9c-.4-.4-1-.7-1.5-.9.7-1.5 1.9-4.2 2.7-6.8.4 2.3 1.2 5 2.2 7.1-1.2.7-2.1 2-2.1 3.5 0 2.2 1.8 4 4 4s4-1.8 4-4-1.8-4-4-4m-8 2.5c-.8 0-1.5.7-1.5 1.5h-1c0-1.4 1.1-2.5 2.5-2.5zm8 0c-.8 0-1.5.7-1.5 1.5h-1c0-1.4 1.1-2.5 2.5-2.5z"/></svg>

<svg  viewBox="0 0 24 24" fill="currentColor"><path  d="M16 13H15.5C14.8 11.7 14.3 10 13.8 8.3L14.7 9.2C17.4 11.3 19.8 10.9 19.8 10.9S20.5 7.1 17.8 5.1C15.5 3.3 13.4 3.3 12.8 3.4C12.7 2.8 12.7 2.3 12.6 1.9L11.2 2C11.2 5.2 8.5 11.1 7.6 13C5.6 13.2 4 14.9 4 17C4 19.2 5.8 21 8 21C9.1 21 10 20.6 10.7 19.9C10.3 19 10 18 10 17S10.3 15 10.7 14.1C10.3 13.7 9.7 13.4 9.2 13.2C9.9 11.7 11.1 9 11.9 6.4C12.3 8.7 13.1 11.4 14.1 13.5C12.9 14.2 12 15.5 12 17C12 19.2 13.8 21 16 21S20 19.2 20 17 18.2 13 16 13M8 15.5C7.2 15.5 6.5 16.2 6.5 17H5.5C5.5 15.6 6.6 14.5 8 14.5V15.5M16 15.5C15.2 15.5 14.5 16.2 14.5 17H13.5C13.5 15.6 14.6 14.5 16 14.5V15.5Z"/></svg>
